X: 1
T: As I Roved Out
R: mazurka
M: 3/4
L: 1/8
K: Dmin
A|AA E>D|E/F/E/-D/ C>C|DD F>G|AG2A|AA D>D|E/F/E/-D/ C>C|DD F>G|AG2A|
Ad dc/-d/|ed c>A|c>c c>C|EG c=B|AA Dz|E/F/E/D/ Cz|cc E/F/E/D/|E2 D-C|D4-|D2 z||


Tune 1594	Setting 15003

